svg/fluentui-system-icons/ic_fluent_text_change_case_24_filled.svg

<svg width="24" height="24" viewBox="0 0 24 24" fill="none" xmlns="http://www.w3.org/2000/svg">
<path d="M16.5142 2.7501C16.9323 2.75603 17.3026 3.0215 17.4425 3.41559L22.9425 18.9156C23.1271 19.4361 22.8549 20.0077 22.3344 20.1924C21.8139 20.3771 21.2423 20.1049 21.0576 19.5844L19.7857 16L12.8304 16L11.4326 19.611C11.2332 20.126 10.6541 20.3819 10.139 20.1826C9.62399 19.9832 9.36808 19.404 9.56746 18.889L15.5675 3.38901C15.7184 2.99904 16.0961 2.74417 16.5142 2.7501ZM16.4593 6.62545L13.6046 14L19.076 14L16.4593 6.62545ZM8.25 20.2604C7.79939 20.2604 7.41867 19.9625 7.29352 19.5529C6.40302 20.0157 5.55589 20.2604 4.75 20.2604C2.77954 20.2604 1.25 18.8599 1.25 16.7604C1.25 15.8382 1.56906 15.0234 2.16035 14.4079C2.75035 13.7938 3.59693 13.3929 4.62959 13.2677C5.48568 13.1638 6.35256 13.21 7.22644 13.4026C7.18035 13.0648 7.06388 12.8244 6.88899 12.6546C6.65902 12.4314 6.28535 12.2882 5.70034 12.2591C4.75405 12.2121 4.148 12.3504 3.82178 12.5791C3.3696 12.8962 2.74598 12.7867 2.42888 12.3345C2.11179 11.8823 2.22131 11.2587 2.6735 10.9416C3.39111 10.4384 4.34684 10.2302 5.50465 10.2515L5.50864 10.2516L5.79966 10.2616C6.82486 10.3126 7.66878 10.6349 8.26882 11.2072C8.87029 11.7809 9.20249 12.5827 9.24525 13.5444L9.24544 13.55L9.25 13.7604V19.2604C9.25 19.7668 8.87372 20.185 8.38538 20.2513L8.37699 20.2524L8.2584 20.2604H8.25ZM4.87041 15.2895C4.29054 15.3598 3.88858 15.5454 3.63341 15.7967C3.38209 16.0442 3.25 16.3779 3.25 16.7967C3.25 17.2894 3.40867 17.6583 3.66052 17.9041C3.91333 18.1508 4.28388 18.2967 4.75 18.2967C5.35855 18.2967 6.14677 18.0129 7.11197 17.3755L7.249 17.282V15.5105L7.12728 15.4742C6.3497 15.2606 5.59939 15.201 4.87041 15.2895Z" fill="#212121"/>
</svg>

<svg xmlns="http://www.w3.org/2000/svg" width="24" height="24"><path d="M16.514 2.75a1 1 0 0 1 .928.666l5.5 15.5a1 1 0 0 1-1.884.668L19.786 16H12.83l-1.397 3.611a1 1 0 0 1-1.866-.722l6-15.5a1 1 0 0 1 .947-.639Zm-.055 3.875L13.605 14h5.471l-2.617-7.375ZM8.25 20.26a1 1 0 0 1-.956-.707c-.891.463-1.738.707-2.544.707-1.97 0-3.5-1.4-3.5-3.5 0-.922.32-1.737.91-2.352.59-.614 1.437-1.015 2.47-1.14a7.69 7.69 0 0 1 2.596.135c-.046-.338-.162-.579-.337-.748-.23-.224-.604-.367-1.189-.396-.946-.047-1.552.091-1.878.32a1 1 0 1 1-1.148-1.637c.717-.504 1.673-.712 2.83-.69h.005l.29.01c1.026.05 1.87.373 2.47.945.601.574.933 1.376.976 2.337v.006l.005.21v5.5a1 1 0 0 1-.865.991l-.008.001-.119.008H8.25Zm-3.38-4.97c-.58.07-.981.255-1.237.507-.25.247-.383.58-.383 1 0 .492.159.861.41 1.107.253.247.624.393 1.09.393.609 0 1.397-.284 2.362-.922l.137-.093v-1.771l-.122-.037a5.805 5.805 0 0 0-2.257-.184Z"/></svg>
